assets/img/icons/in-app_message.svg

<svg fill="none" height="25" viewBox="0 0 24 25" width="24" xmlns="http://www.w3.org/2000/svg" xmlns:xlink="http://www.w3.org/1999/xlink"><linearGradient id="a" gradientUnits="userSpaceOnUse" x1="11.9876" x2="11.9876" y1="4.05657" y2="21.1529"><stop offset="0" stop-color="#4c98ed"/><stop offset="1" stop-color="#e5a7de"/></linearGradient><clipPath id="b"><path d="m0 .608398h24v24h-24z"/></clipPath><g clip-path="url(#b)"><path clip-rule="evenodd" d="m3.45239 1.60835c0-.44183.35817-.8.8-.8h15.49401c.4418 0 .8.35817.8.8v21.99995c0 .4419-.3582.8-.8.8h-15.49401c-.44183 0-.8-.3581-.8-.8zm1.6.8v20.39995h13.89401v-20.39995z" fill="#2e3c47" fill-rule="evenodd"/><path d="m6.802 4.05664h10.3711v17.09626h-10.3711z" fill="url(#a)"/><path d="m14.769 9.83553c0 1.52947-1.2399 2.76937-2.7694 2.76937s-2.76938-1.2399-2.76938-2.76937c0-1.52948 1.23988-2.76937 2.76938-2.76937s2.7694 1.23989 2.7694 2.76937z" fill="#fff"/><path d="m8.06079 15.4644c0-.2762.22386-.5.5-.5h7.00511c.2761 0 .5.2238.5.5v1.8988c0 .2762-.2239.5-.5.5h-7.00511c-.27614 0-.5-.2238-.5-.5z" fill="#2e3c47"/></g></svg>

<svg width="24" height="25" viewBox="0 0 24 25" fill="none" xmlns="http://www.w3.org/2000/svg">
<g clip-path="url(#clip0_5018_30015)">
<path fill-rule="evenodd" clip-rule="evenodd" d="M3.45239 1.60835C3.45239 1.16652 3.81056 0.80835 4.25239 0.80835H19.7464C20.1882 0.80835 20.5464 1.16652 20.5464 1.60835V23.6083C20.5464 24.0502 20.1882 24.4083 19.7464 24.4083H4.25239C3.81056 24.4083 3.45239 24.0502 3.45239 23.6083V1.60835ZM5.05239 2.40835V22.8083H18.9464V2.40835H5.05239Z" fill="#2E3C47"/>
<path d="M6.802 4.05664H17.1731V21.1529H6.802V4.05664Z" fill="url(#paint0_linear_5018_30015)"/>
<path d="M14.769 9.83553C14.769 11.365 13.5291 12.6049 11.9996 12.6049C10.4701 12.6049 9.23022 11.365 9.23022 9.83553C9.23022 8.30605 10.4701 7.06616 11.9996 7.06616C13.5291 7.06616 14.769 8.30605 14.769 9.83553Z" fill="white"/>
<path d="M8.06079 15.4644C8.06079 15.1882 8.28465 14.9644 8.56079 14.9644H15.5659C15.842 14.9644 16.0659 15.1882 16.0659 15.4644V17.3632C16.0659 17.6394 15.842 17.8632 15.5659 17.8632H8.56079C8.28465 17.8632 8.06079 17.6394 8.06079 17.3632V15.4644Z" fill="#2E3C47"/>
</g>
<defs>
<linearGradient id="paint0_linear_5018_30015" x1="11.9876" y1="4.05657" x2="11.9876" y2="21.1529" gradientUnits="userSpaceOnUse">
<stop stop-color="#4C98ED"/>
<stop offset="1" stop-color="#E5A7DE"/>
</linearGradient>
<clipPath id="clip0_5018_30015">
<rect width="24" height="24" fill="white" transform="translate(0 0.608398)"/>
</clipPath>
</defs>
</svg>
